style/svgs/color_palette.svg

<?xml version="1.0" encoding="UTF-8"?>
<svg width="100px" height="100px" viewBox="0 0 100 100" version="1.1" xmlns="http://www.w3.org/2000/svg" xmlns:xlink="http://www.w3.org/1999/xlink">
    <title>Paint</title>
    <g id="Paint" stroke="none" stroke-width="1" fill="none" fill-rule="evenodd">
        <path d="M53.6318359,89.4741211 C59.1435547,89.4741211 63.959554,88.8797201 68.079834,87.690918 C72.2001139,86.5021159 75.4220378,84.8472493 77.7456055,82.7263184 C80.0691732,80.6053874 81.230957,78.1534831 81.230957,75.3706055 C81.230957,73.3982747 80.8797201,71.777181 80.1772461,70.5073242 C79.4747721,69.2374674 78.6709798,68.1297201 77.7658691,67.184082 C76.8607585,66.238444 76.0637207,65.2860514 75.3747559,64.3269043 C74.685791,63.3677572 74.3413086,62.2532552 74.3413086,60.9833984 C74.3413086,59.7405599 74.9086914,58.6463216 76.043457,57.7006836 C77.1782227,56.7550456 78.6439616,55.8499349 80.4406738,54.9853516 C82.2373861,54.1207682 84.1354167,53.1886393 86.1347656,52.1889648 C88.1341146,51.1892904 90.0321452,50.0004883 91.8288574,48.6225586 C93.6255697,47.2446289 95.0913086,45.5694987 96.2260742,43.597168 C97.3608398,41.6248372 97.9282227,39.2472331 97.9282227,36.4643555 C97.9282227,32.4926758 96.9420573,28.8789876 94.9697266,25.623291 C92.9973958,22.3675944 90.1942546,19.5779622 86.5603027,17.2543945 C82.9263509,14.9308268 78.5696615,13.1408691 73.4902344,11.8845215 C68.4108073,10.6281738 62.7910156,10 56.6308594,10 C48.4443359,10 41.0075684,10.9659017 34.3205566,12.8977051 C27.6335449,14.8295085 21.8786621,17.5718587 17.0559082,21.1247559 C12.2331543,24.677653 8.51814779,28.9330241 5.91088867,33.8908691 C3.30362956,38.8487142 2,44.3671875 2,50.4462891 C2,56.2552083 3.23608398,61.5575358 5.70825195,66.3532715 C8.18041992,71.1490072 11.6995443,75.2692871 16.265625,78.7141113 C20.8317057,82.1589355 26.2758789,84.8134766 32.5981445,86.6777344 C38.9204102,88.5419922 45.9316406,89.4741211 53.6318359,89.4741211 Z M53.6318359,84.2055664 C46.6341146,84.2055664 40.2983398,83.4017741 34.6245117,81.7941895 C28.9506836,80.1866048 24.0671387,77.8900553 19.973877,74.904541 C15.8806152,71.9190267 12.7397461,68.359375 10.5512695,64.2255859 C8.36279297,60.0917969 7.26855469,55.4986979 7.26855469,50.4462891 C7.26855469,45.1507161 8.43033854,40.3482259 10.7539062,36.0388184 C13.077474,31.7294108 16.4142253,28.0211589 20.7641602,24.9140625 C25.1140951,21.8069661 30.3151042,19.4158529 36.3671875,17.7407227 C42.4192708,16.0655924 49.1738281,15.2280273 56.6308594,15.2280273 C63.8717448,15.2280273 70.1940104,16.1196289 75.5976562,17.902832 C81.0013021,19.6860352 85.2026367,22.1649577 88.2016602,25.3395996 C91.2006836,28.5142415 92.7001953,32.2224935 92.7001953,36.4643555 C92.7001953,38.8959961 92.1260579,40.9291178 90.9777832,42.5637207 C89.8295085,44.1983236 88.357015,45.5762533 86.5603027,46.6975098 C84.7635905,47.8187663 82.8588053,48.8387044 80.8459473,49.7573242 C78.8330892,50.675944 76.9215495,51.621582 75.1113281,52.5942383 C73.3011068,53.5668945 71.8286133,54.7219238 70.6938477,56.0593262 C69.559082,57.3967285 68.9916992,59.0651042 68.9916992,61.0644531 C68.9916992,62.7666016 69.3429362,64.2120768 70.0454102,65.4008789 C70.7478841,66.589681 71.558431,67.6636556 72.4770508,68.6228027 C73.3956706,69.5819499 74.2062174,70.541097 74.9086914,71.5002441 C75.6111654,72.4593913 75.9624023,73.5738932 75.9624023,74.84375 C75.9624023,77.7076823 73.9427897,79.9839681 69.9035645,81.6726074 C65.8643392,83.3612467 60.4404297,84.2055664 53.6318359,84.2055664 Z M56.9550781,36.1401367 C58.7923177,36.1401367 60.3323568,35.5119629 61.5751953,34.2556152 C62.8180339,32.9992676 63.4394531,31.4659831 63.4394531,29.6557617 C63.4394531,27.8455404 62.8180339,26.3122559 61.5751953,25.0559082 C60.3323568,23.7995605 58.7923177,23.1713867 56.9550781,23.1713867 C55.171875,23.1713867 53.6385905,23.8063151 52.3552246,25.0761719 C51.0718587,26.3460286 50.4301758,27.8725586 50.4301758,29.6557617 C50.4301758,31.4389648 51.0718587,32.9654948 52.3552246,34.2353516 C53.6385905,35.5052083 55.171875,36.1401367 56.9550781,36.1401367 Z M36.4887695,42.8676758 C38.785319,42.8676758 40.7441406,42.0571289 42.3652344,40.4360352 C43.9863281,38.8149414 44.796875,36.8426107 44.796875,34.519043 C44.796875,32.2224935 43.9795736,30.2704264 42.3449707,28.6628418 C40.7103678,27.0552572 38.7583008,26.2514648 36.4887695,26.2514648 C34.1381836,26.2514648 32.1388346,27.0552572 30.4907227,28.6628418 C28.8426107,30.2704264 28.0185547,32.2224935 28.0185547,34.519043 C28.0185547,36.8426107 28.8426107,38.8149414 30.4907227,40.4360352 C32.1388346,42.0571289 34.1381836,42.8676758 36.4887695,42.8676758 Z M75.5166016,38.6123047 C76.8945312,38.6123047 78.0833333,38.119222 79.0830078,37.1330566 C80.0826823,36.1468913 80.5825195,34.9378255 80.5825195,33.5058594 C80.5825195,32.1009115 80.0826823,30.8918457 79.0830078,29.8786621 C78.0833333,28.8654785 76.8945312,28.3588867 75.5166016,28.3588867 C74.0846354,28.3588867 72.855306,28.8654785 71.8286133,29.8786621 C70.8019206,30.8918457 70.2885742,32.1009115 70.2885742,33.5058594 C70.2885742,34.9378255 70.795166,36.1468913 71.8083496,37.1330566 C72.8215332,38.119222 74.0576172,38.6123047 75.5166016,38.6123047 Z M21.6557617,55.512207 C23.3579102,55.512207 24.8236491,54.8840332 26.0529785,53.6276855 C27.2823079,52.3713379 27.8969727,50.8920898 27.8969727,49.1899414 C27.8969727,47.4337565 27.2958171,45.9545085 26.0935059,44.7521973 C24.8911947,43.5498861 23.4119466,42.9487305 21.6557617,42.9487305 C19.9265951,42.9487305 18.447347,43.5566406 17.2180176,44.7724609 C15.9886882,45.9882812 15.3740234,47.4607747 15.3740234,49.1899414 C15.3740234,50.8920898 15.9886882,52.3713379 17.2180176,53.6276855 C18.447347,54.8840332 19.9265951,55.512207 21.6557617,55.512207 Z M50.3085938,74.2358398 C52.4430339,74.2358398 54.3883464,73.7157389 56.1445312,72.6755371 C57.9007161,71.6353353 59.3056641,70.2303874 60.359375,68.4606934 C61.4130859,66.6909993 61.9399414,64.7254232 61.9399414,62.5639648 C61.9399414,60.456543 61.4130859,58.517985 60.359375,56.748291 C59.3056641,54.978597 57.9007161,53.5668945 56.1445312,52.5131836 C54.3883464,51.4594727 52.4430339,50.9326172 50.3085938,50.9326172 C48.1471354,50.9326172 46.1883138,51.4594727 44.4321289,52.5131836 C42.675944,53.5668945 41.2709961,54.978597 40.2172852,56.748291 C39.1635742,58.517985 38.6367188,60.456543 38.6367188,62.5639648 C38.6367188,64.7254232 39.1635742,66.6909993 40.2172852,68.4606934 C41.2709961,70.2303874 42.675944,71.6353353 44.4321289,72.6755371 C46.1883138,73.7157389 48.1471354,74.2358398 50.3085938,74.2358398 Z M50.3085938,70.4667969 C48.8225911,70.4667969 47.4851888,70.1155599 46.2963867,69.4130859 C45.1075846,68.710612 44.1619466,67.7582194 43.4594727,66.5559082 C42.7569987,65.353597 42.4057617,64.0229492 42.4057617,62.5639648 C42.4057617,61.0239258 42.7705078,59.6730143 43.5,58.5112305 C44.2294922,57.3494466 45.1818848,56.4308268 46.3571777,55.7553711 C47.5324707,55.0799154 48.8225911,54.7421875 50.2275391,54.7421875 C51.632487,54.7151693 52.9428711,55.0326335 54.1586914,55.6945801 C55.3745117,56.3565267 56.347168,57.2751465 57.0766602,58.4504395 C57.8061523,59.6257324 58.1708984,60.9969076 58.1708984,62.5639648 C58.1708984,64.0229492 57.8196615,65.353597 57.1171875,66.5559082 C56.4147135,67.7582194 55.4690755,68.710612 54.2802734,69.4130859 C53.0914714,70.1155599 51.7675781,70.4667969 50.3085938,70.4667969 Z" id="􀝥" fill="#FFFFFF" fill-rule="nonzero"></path>
    </g>
</svg>

<svg xmlns="http://www.w3.org/2000/svg" width="100" height="100" viewBox="0 0 100 100"><path fill="#FFF" fill-rule="nonzero" d="M53.632 89.474c5.512 0 10.328-.594 14.448-1.783 4.12-1.189 7.342-2.844 9.666-4.965 2.323-2.12 3.485-4.573 3.485-7.355 0-1.973-.351-3.594-1.054-4.864-.702-1.27-1.506-2.377-2.411-3.323a26.541 26.541 0 0 1-2.391-2.857c-.69-.96-1.034-2.074-1.034-3.344 0-1.242.568-2.337 1.702-3.282 1.135-.946 2.601-1.851 4.398-2.716a419.74 419.74 0 0 0 5.694-2.796c2-1 3.897-2.189 5.694-3.566a16.875 16.875 0 0 0 4.397-5.026c1.135-1.972 1.702-4.35 1.702-7.133 0-3.971-.986-7.585-2.958-10.84-1.973-3.256-4.776-6.046-8.41-8.37-3.634-2.323-7.99-4.113-13.07-5.37C68.41 10.629 62.791 10 56.63 10c-8.186 0-15.622.966-22.31 2.898-6.686 1.932-12.441 4.674-17.264 8.227-4.823 3.553-8.538 7.808-11.145 12.766C3.304 38.849 2 44.367 2 50.446c0 5.81 1.236 11.112 3.708 15.907C8.18 71.15 11.7 75.27 16.266 78.714c4.566 3.445 10.01 6.1 16.332 7.964 6.322 1.864 13.334 2.796 21.034 2.796Zm0-5.268c-6.998 0-13.334-.804-19.007-2.412-5.674-1.607-10.558-3.904-14.651-6.89-4.093-2.985-7.234-6.545-9.423-10.678-2.188-4.134-3.282-8.727-3.282-13.78 0-5.295 1.161-10.098 3.485-14.407 2.323-4.31 5.66-8.018 10.01-11.125 4.35-3.107 9.551-5.498 15.603-7.173 6.052-1.675 12.807-2.513 20.264-2.513 7.24 0 13.563.892 18.967 2.675 5.403 1.783 9.605 4.262 12.604 7.437C91.2 28.514 92.7 32.222 92.7 36.464c0 2.432-.574 4.465-1.722 6.1-1.148 1.634-2.621 3.012-4.418 4.134a49.947 49.947 0 0 1-5.714 3.06 98.663 98.663 0 0 0-5.735 2.836c-1.81.973-3.282 2.128-4.417 3.465-1.135 1.338-1.702 3.006-1.702 5.005 0 1.703.35 3.148 1.053 4.337a17.528 17.528 0 0 0 2.432 3.222c.919.959 1.73 1.918 2.432 2.877.702.96 1.053 2.074 1.053 3.344 0 2.864-2.02 5.14-6.058 6.829-4.04 1.688-9.464 2.533-16.272 2.533Zm3.323-48.066c1.837 0 3.377-.628 4.62-1.884 1.243-1.257 1.864-2.79 1.864-4.6 0-1.81-.621-3.344-1.864-4.6-1.243-1.256-2.783-1.885-4.62-1.885-1.783 0-3.316.635-4.6 1.905-1.283 1.27-1.925 2.797-1.925 4.58s.642 3.31 1.925 4.58c1.284 1.27 2.817 1.904 4.6 1.904ZM36.49 42.868c2.296 0 4.255-.81 5.876-2.432 1.621-1.621 2.432-3.593 2.432-5.917 0-2.297-.817-4.249-2.452-5.856-1.635-1.608-3.587-2.412-5.856-2.412-2.35 0-4.35.804-5.998 2.412-1.648 1.607-2.472 3.56-2.472 5.856 0 2.324.824 4.296 2.472 5.917 1.648 1.621 3.647 2.432 5.998 2.432Zm39.028-4.256c1.378 0 2.566-.493 3.566-1.479 1-.986 1.5-2.195 1.5-3.627 0-1.405-.5-2.614-1.5-3.627-1-1.014-2.188-1.52-3.566-1.52-1.432 0-2.662.506-3.688 1.52-1.027 1.013-1.54 2.222-1.54 3.627 0 1.432.506 2.64 1.52 3.627 1.013.986 2.249 1.48 3.708 1.48Zm-53.861 16.9c1.702 0 3.168-.628 4.397-1.884 1.23-1.257 1.844-2.736 1.844-4.438 0-1.756-.601-3.235-1.803-4.438-1.203-1.202-2.682-1.803-4.438-1.803-1.73 0-3.209.608-4.438 1.823-1.23 1.216-1.844 2.689-1.844 4.418 0 1.702.615 3.181 1.844 4.438 1.23 1.256 2.709 1.884 4.438 1.884Zm28.653 18.724c2.134 0 4.08-.52 5.836-1.56a11.886 11.886 0 0 0 4.214-4.215c1.054-1.77 1.58-3.736 1.58-5.897 0-2.107-.526-4.046-1.58-5.816a12.053 12.053 0 0 0-4.214-4.235c-1.757-1.054-3.702-1.58-5.836-1.58-2.162 0-4.12.526-5.877 1.58a12.053 12.053 0 0 0-4.215 4.235c-1.053 1.77-1.58 3.709-1.58 5.816 0 2.161.527 4.127 1.58 5.897a11.886 11.886 0 0 0 4.215 4.215c1.756 1.04 3.715 1.56 5.877 1.56Zm0-3.77c-1.486 0-2.824-.35-4.013-1.053a7.88 7.88 0 0 1-2.837-2.857c-.702-1.202-1.053-2.533-1.053-3.992 0-1.54.365-2.891 1.094-4.053a8.088 8.088 0 0 1 2.857-2.756c1.175-.675 2.466-1.013 3.87-1.013a7.77 7.77 0 0 1 3.932.953 7.726 7.726 0 0 1 2.918 2.755c.73 1.176 1.094 2.547 1.094 4.114 0 1.459-.351 2.79-1.054 3.992a7.88 7.88 0 0 1-2.837 2.857c-1.189.703-2.512 1.054-3.971 1.054Z"/></svg>
